resources/svg/arrow-right-small-o.svg

<svg xmlns="http://www.w3.org/2000/svg" viewBox="0 0 15 15" fill="none"><path d="M8.14645 9.14645L7.79289 9.5L8.5 10.2071L8.85355 9.85355L8.14645 9.14645ZM10.5 7.5L10.8536 7.85355L11.2071 7.5L10.8536 7.14645L10.5 7.5ZM8.85355 5.14645L8.5 4.79289L7.79289 5.5L8.14645 5.85355L8.85355 5.14645ZM8.85355 9.85355L10.8536 7.85355L10.1464 7.14645L8.14645 9.14645L8.85355 9.85355ZM10.8536 7.14645L8.85355 5.14645L8.14645 5.85355L10.1464 7.85355L10.8536 7.14645ZM10.5 7H4V8H10.5V7Z" fill="black"/></svg>

<svg xmlns="http://www.w3.org/2000/svg" viewBox="0 0 15 15" fill="none"><path d="M8.146 9.146l-.353.354.707.707.354-.353-.708-.708zM10.5 7.5l.354.354.353-.354-.353-.354-.354.354zM8.854 5.146L8.5 4.793l-.707.707.353.354.708-.708zm0 4.708l2-2-.708-.708-2 2 .708.708zm2-2.708l-2-2-.708.708 2 2 .708-.708zM10.5 7H4v1h6.5V7z" fill="currentColor"/></svg>
